X: 185
T: Fred Finn`s
M:4/4
L:1/8
B: Bulmer & Sharpley
R: reel
K: D
A3 F ABde | fdec d2 cd | BE ~E2 G3 B | AF ~F2 dFAF | A3 F ABde | fdec d2 cd|
BAGB ABde | faeg fd ~d2 :| fdad bdaf | dfaf gfed| fbba b2 ba | fbba feeg |
fdad bdaf | dfaf gfed | BAGB ABde | faeg fd ~d2 :|
